frontend/public/svg/finance/money-plant.svg

<svg width="110" height="157" viewBox="0 0 110 157" fill="none" xmlns="http://www.w3.org/2000/svg">
<g clip-path="url(#clip0)">
<path d="M59.8172 86.2382V111.911C60.1417 111.757 60.4439 111.56 60.7157 111.325C69.8212 100.102 81.8997 94.3406 95.9191 92.1235C97.8022 91.8256 99.6747 91.4593 101.555 91.139C105.093 90.5424 107.396 92.0947 108.118 95.6907C108.821 99.4548 108.712 103.327 107.798 107.045C105.304 118.122 98.425 126 89.2809 132.117C82.4045 136.809 74.6479 140.056 66.4797 141.661C64.4056 142.055 62.266 142.106 59.7378 142.354C59.7954 144.069 59.7249 145.787 59.5271 147.492C59.1076 149.784 58.4898 152.035 57.6808 154.22C57.4278 154.92 56.9422 155.512 56.3053 155.897C55.6684 156.283 54.9186 156.437 54.1812 156.336C53.3821 156.301 52.6204 155.987 52.0283 155.45C51.4361 154.911 51.0507 154.184 50.9389 153.392C50.4722 151.21 50.211 148.979 49.9602 146.758C49.8919 145.639 49.885 144.518 49.9392 143.398C46.8545 142.965 44.0479 142.796 41.3524 142.154C23.9154 138.003 10.6575 128.358 2.54057 112.151C1.58061 110.251 0.870868 108.234 0.429103 106.152C-0.464829 101.797 1.55737 98.15 5.84982 97.0553C18.9227 93.7197 31.6806 94.4778 43.6909 101.092C46.202 102.475 48.3024 104.604 50.9356 106.657C51.8 100.053 51.8656 93.4566 52.3729 86.7665C48.4152 86.3071 44.7201 86.1174 41.1221 85.4217C25.3831 82.3795 14.6506 73.5118 10.6299 57.7319C7.73087 46.3569 9.81212 35.4202 15.5459 25.2535C18.6166 19.7451 22.683 14.8545 27.5384 10.83C33.0759 6.26385 39.7103 4.28561 46.485 2.62048C56.3635 0.192029 66.1489 1.00399 75.6954 4.08746C83.2977 6.49526 89.6353 11.819 93.3187 18.8918C99.2028 29.787 101.713 41.4245 99.2047 53.6633C95.8804 69.8848 85.5529 79.7069 69.8107 84.0703C66.5913 84.9695 63.2682 85.5017 59.8172 86.2382ZM49.5021 8.71134C40.018 8.57285 35.4881 10.2629 29.1124 17.178C21.5389 25.3895 17.066 35.0397 16.9222 46.3195C16.7535 59.5637 23.1036 73.0326 39.8324 77.1308C50.4948 79.7443 61.7015 79.0342 71.949 75.0962C83.0654 70.9612 89.569 62.783 91.3891 50.9643C92.8133 41.7172 90.5765 33.1324 86.6116 24.9216C83.0674 17.5758 77.0035 13.0359 69.1287 11.426C62.6716 10.1054 56.0504 9.58558 49.5021 8.71134ZM50.2767 134.676C50.2767 130.479 50.3088 126.247 50.2412 122.016C50.1556 121.361 49.8802 120.745 49.449 120.244C47.6297 117.828 45.7137 115.485 43.9055 113.06C41.1787 109.461 37.3979 106.801 33.0891 105.45C26.1666 103.097 18.8106 102.297 11.5441 103.109C10.6797 103.256 9.82597 103.46 8.98842 103.72C14.713 122.782 36.571 135.48 50.2767 134.676ZM100.032 99.1614C99.3524 99.0774 98.6679 99.0459 97.9833 99.0669C91.2755 99.9687 84.7692 101.547 78.8307 104.95C72.3192 108.683 66.5893 113.269 62.7962 119.906C60.355 123.979 59.2773 128.724 59.72 133.452C60.7113 133.519 61.7061 133.513 62.6965 133.434C75.9376 131.239 87.0651 125.23 95.2825 114.528C98.7079 110.167 100.4 104.694 100.032 99.1614Z" fill="black"/>
<path d="M58.937 66.4228C58.7454 68.0367 58.6332 69.5956 58.3621 71.1261C57.9467 73.4653 56.758 74.6855 55.0345 74.7255C53.3477 74.7649 52.0429 73.5894 51.4785 71.2994C51.0801 69.6835 50.874 68.0177 50.5839 66.39C48.0898 65.53 45.6613 64.7358 43.265 63.8393C42.4394 63.4884 41.6572 63.0429 40.9344 62.5116C39.4701 61.5271 38.8144 60.1271 39.457 58.4423C40.1382 56.6564 41.7541 56.8605 43.1922 57.1572C45.599 57.6534 47.9756 58.2946 50.8877 59.0021L51.487 46.4838C49.8232 45.9587 48.4317 45.5596 47.0692 45.0785C40.0214 42.591 39.0743 36.848 41.932 31.3223C43.6785 27.9461 45.8825 26.1373 51.7554 23.105C51.699 21.8087 51.6241 20.3891 51.5768 18.97C51.5283 17.5917 52.0658 16.2482 53.4467 16.2476C54.0199 16.3059 54.5743 16.4846 55.0736 16.7718C55.5729 17.0591 56.006 17.4486 56.3445 17.9147C57.1197 19.0705 57.3126 20.6162 57.757 21.9945C60.0903 22.979 62.4767 23.8539 64.7234 25.0045C65.1317 25.2511 65.4861 25.5775 65.7656 25.9641C66.0452 26.3508 66.2434 26.7899 66.3498 27.255C66.5788 28.5427 65.5503 29.2961 64.3322 29.4865C62.3632 29.7996 60.3797 29.9986 58.2794 30.2604C58.219 30.8026 58.1324 31.2259 58.1311 31.6492C58.1199 34.8922 58.1252 38.1351 58.1252 41.4004C59.2613 41.8027 59.9695 42.0804 60.6947 42.3042C61.9766 42.7013 63.2866 43.015 64.5547 43.4515C73.3634 46.4831 73.3102 52.9441 69.7516 58.8754C67.8994 61.9602 65.0574 63.9495 61.7889 65.3455C60.8739 65.74 59.9255 66.0531 58.937 66.4228ZM58.6443 47.5858V59.0112C61.7206 58.0418 63.9883 56.6058 65.3009 53.9476C66.4088 51.7042 66.0137 50.303 63.8149 49.3008C62.1243 48.6351 60.3981 48.0631 58.6443 47.5877V47.5858ZM51.6018 31.5822C47.9985 33.0045 46.044 34.9407 46.4266 36.9523C46.9281 39.5829 49.2489 39.6572 51.6018 40.2531V31.5822Z" fill="black"/>
</g>
<defs>
<clipPath id="clip0">
<rect width="108.952" height="156.208" fill="white" transform="translate(0.114746 0.733887)"/>
</clipPath>
</defs>
</svg>

<svg xmlns="http://www.w3.org/2000/svg" width="110" height="157" fill="none" viewBox="0 0 110 157"><g fill="#000" clip-path="url(#a)"><path d="M59.817 86.238v25.673q.49-.232.899-.586C69.82 100.102 81.9 94.341 95.919 92.124c1.883-.298 3.756-.665 5.636-.985 3.538-.597 5.841.956 6.563 4.552a26.9 26.9 0 0 1-.32 11.354c-2.494 11.077-9.373 18.955-18.517 25.072a61.5 61.5 0 0 1-22.801 9.544c-2.074.394-4.214.445-6.742.693a34.5 34.5 0 0 1-.21 5.138 40 40 0 0 1-1.847 6.728 3.25 3.25 0 0 1-3.5 2.116 3.43 3.43 0 0 1-3.242-2.944c-.467-2.182-.728-4.413-.979-6.634a31 31 0 0 1-.02-3.36c-3.085-.433-5.892-.602-8.588-1.244-17.437-4.151-30.694-13.796-38.811-30.003a24.7 24.7 0 0 1-2.112-5.999c-.894-4.355 1.128-8.002 5.42-9.097 13.074-3.335 25.832-2.577 37.842 4.037 2.511 1.383 4.611 3.512 7.245 5.565.864-6.604.93-13.2 1.437-19.89-3.958-.46-7.653-.65-11.25-1.345-15.74-3.043-26.472-11.91-30.493-27.69-2.9-11.375-.818-22.312 4.916-32.479A51 51 0 0 1 27.538 10.83c5.538-4.566 12.172-6.544 18.947-8.21 9.879-2.428 19.664-1.616 29.21 1.467A30.13 30.13 0 0 1 93.32 18.892c5.884 10.895 8.394 22.533 5.886 34.771C95.88 69.885 85.553 79.707 69.81 84.07c-3.22.9-6.543 1.432-9.994 2.168M49.502 8.711c-9.484-.138-14.014 1.552-20.39 8.467-7.573 8.212-12.046 17.862-12.19 29.141-.169 13.245 6.182 26.714 22.91 30.812a53.8 53.8 0 0 0 32.117-2.035c11.116-4.135 17.62-12.313 19.44-24.132 1.424-9.247-.812-17.832-4.777-26.042-3.545-7.346-9.608-11.886-17.483-13.496-6.457-1.32-13.079-1.84-19.627-2.715m.775 125.965c0-4.197.032-8.429-.036-12.66a3.4 3.4 0 0 0-.792-1.772c-1.82-2.416-3.735-4.759-5.543-7.184a21.73 21.73 0 0 0-10.817-7.61 49.8 49.8 0 0 0-21.545-2.341q-1.297.22-2.556.611c5.725 19.062 27.583 31.76 41.289 30.956m49.755-35.515a13.4 13.4 0 0 0-2.049-.094c-6.708.902-13.214 2.48-19.152 5.883-6.512 3.733-12.242 8.319-16.035 14.956a22.3 22.3 0 0 0-3.076 13.546q1.488.1 2.977-.018c13.24-2.195 24.368-8.204 32.585-18.906a22.46 22.46 0 0 0 4.75-15.367"/><path d="M58.937 66.423c-.192 1.614-.304 3.173-.575 4.703-.415 2.34-1.604 3.56-3.328 3.6-1.686.039-2.991-1.137-3.556-3.427-.398-1.616-.604-3.281-.894-4.909-2.494-.86-4.923-1.654-7.319-2.55a11.6 11.6 0 0 1-2.33-1.328c-1.465-.985-2.12-2.385-1.478-4.07.681-1.786 2.297-1.581 3.735-1.285 2.407.496 4.784 1.138 7.696 1.845l.599-12.518c-1.664-.525-3.055-.924-4.418-1.406-7.048-2.487-7.995-8.23-5.137-13.756 1.746-3.376 3.95-5.185 9.823-8.217-.056-1.296-.13-2.716-.178-4.135-.049-1.378.489-2.722 1.87-2.722a4.1 4.1 0 0 1 2.897 1.667c.776 1.156.969 2.701 1.413 4.08 2.333.984 4.72 1.859 6.966 3.01a3.55 3.55 0 0 1 1.627 2.25c.229 1.288-.8 2.041-2.018 2.232-1.969.313-3.952.512-6.053.773-.06.543-.147.966-.148 1.39-.011 3.242-.006 6.485-.006 9.75 1.136.403 1.844.68 2.57.904 1.282.397 2.592.711 3.86 1.148 8.808 3.031 8.755 9.492 5.197 15.423-1.853 3.085-4.695 5.075-7.963 6.47-.915.395-1.864.708-2.852 1.078m-.293-18.837V59.01c3.077-.97 5.344-2.405 6.657-5.063 1.108-2.244.713-3.645-1.486-4.647a49 49 0 0 0-5.17-1.713zm-7.042-16.004c-3.603 1.422-5.558 3.359-5.175 5.37.501 2.63 2.822 2.705 5.175 3.301z"/></g><defs><clipPath id="a"><path fill="#fff" d="M.115.734h108.952v156.208H.115z"/></clipPath></defs></svg>
